X:1
T: The New Water Kettle
C:
R:Jig
Q:180
K:F
M:6/8
L:1/16
C2|c2A2F2 F6|F6F4EF|c2A2F2 F4EF|G2A2F2 E2D2C2|
c2A2F2 F6|F4EF c2B2A2|d2e2f2 c2B2A2|G2A2F2 E2D2C2|
|:c2B2A2 f4c2|f4c2 f4d2|c2B2A2 f4A2|G2A2F2 E2D2C2|
c2B2A2 f4c2|f2e2d2 c2B2A2|d2c2B2 A2G2F2|E2G2F2 E2D2C2|
c2B2A2 f4c2|f4c2 f4d2|c2B2A2 f2c2A2|G2A2F2 E2D2C2|
c2B2A2 a2g2f2|e2d2c2 f2e2d2|c2B2A2 d2c2B2|A2G2F2 E2D2C2:|
